src/voraciously.svg

<svg viewBox="0 0 171 22" fill="none" xmlns="http://www.w3.org/2000/svg"><path d="M17.88 0c.11 4.62-2.7 9.24-4.74 13.86-1.19 2.7-2.11 5.4-2.04 8.1H9.83c-.1-3.09 1.14-6.18 2.57-9.27C14.36 8.46 16.7 4.23 16.6 0h1.28ZM5.7 0l4 12.83 1.12-2.36C12.49 7 14.07 3.5 13.98 0h1.29c.1 3.88-1.87 7.75-3.7 11.62-1.64 3.45-3.18 6.9-3.08 10.34H7.21L0 0h5.7Zm14.76 0c.13 5.4-3.73 10.8-5.68 16.2a15.73 15.73 0 0 0-1.1 5.76h-1.27c-.07-2.33.61-4.66 1.57-7C16.03 9.98 19.3 5 19.19 0h1.27Zm10.67 13.42c0-3.47-.82-5.45-3.13-5.45-2.25 0-3.17 2-3.17 5.5 0 3.75 1.17 5.4 3.19 5.4 2.07 0 3.11-1.83 3.11-5.45Zm-10.68 0c0-5.18 3.01-8.55 7.5-8.55 4.58 0 7.56 3.2 7.56 8.53 0 5.06-3.1 8.58-7.47 8.58-4.58 0-7.59-3.42-7.59-8.56Zm22.06-1.12h2.87c1.64 0 2.51-.73 2.51-2 0-1.16-.82-1.9-2.31-1.9H42.5v3.9h.01Zm-4.08 9.6V5.38h7.97c3.63 0 5.75 1.91 5.75 4.79 0 2.16-.97 3.52-2.99 4.26l3.11 7.49h-4.35l-2.67-6.74h-2.74v6.74h-4.08v-.02Zm21.17-6.59h3.45l-1.82-5.5-1.64 5.5h.01Zm-5.39 6.6 5.43-16.54h4.28l5.65 16.54h-4.33l-1.27-3.77H58.8l-1.12 3.77H54.21Zm16.16-8.16c0-5.65 2.86-8.82 7.29-8.82 3.81 0 5.95 2.15 6.6 5.77l-3.91.62c-.3-2.06-.92-3.27-2.67-3.27-1.84 0-2.9 1.7-2.9 5.5 0 3.52.94 5.36 3 5.36 1.75 0 2.6-1.1 2.92-3.3l3.73.62c-.8 3.82-3.11 5.75-6.87 5.75-4.28 0-7.2-3.22-7.2-8.23h.01Zm17.34 8.16h4.11V5.37h-4.11v16.54Zm17.71-8.49c0-3.47-.82-5.45-3.14-5.45-2.24 0-3.16 2-3.16 5.5 0 3.75 1.17 5.4 3.18 5.4 2.07 0 3.12-1.83 3.12-5.45Zm-10.68 0c0-5.18 3-8.55 7.49-8.55 4.58 0 7.57 3.2 7.57 8.53 0 5.06-3.11 8.58-7.47 8.58-4.58 0-7.6-3.42-7.6-8.56h.01Zm18.02 2.55V5.06h4.13v10.48c0 1.96.77 3.08 2.71 3.08 1.97 0 2.77-1.17 2.77-3.08V5.06h3.26v10.9c0 3.75-2.24 5.9-6.45 5.9-4 0-6.42-2.08-6.42-5.9v.01Zm15.74 1.62 3.24-1.24c.67 1.61 1.74 2.58 4 2.58 1.65 0 2.7-.67 2.7-1.76 0-1.52-1.82-1.86-3.84-2.36-2.56-.62-5.5-1.49-5.5-5.13 0-2.8 2.42-4.78 6.42-4.78 3.51 0 5.56 1.53 6.5 4.06L138.56 10c-.47-1.36-1.57-1.98-3.09-1.98-1.37 0-2.29.57-2.29 1.54 0 1.46 1.62 1.73 3.91 2.28 2.77.64 5.36 1.66 5.36 5.1 0 2.93-2.17 5.04-6.63 5.04-4.4 0-6.35-1.89-7.32-4.4v.01Zm16.88 4.28V5.19h4.14v13.52h6.96v3.16h-11.1Zm15.93 0v-7.01l-5.73-9.67h4.52l2.99 5.17.58 1.15.63-1.15 2.89-5.17h3.64l-5.48 9.67v7.01h-4.04Z" fill="black"/></svg>

<svg viewBox="0 0 171 22" fill="none" xmlns="http://www.w3.org/2000/svg"><path d="M17.88 0C17.99 4.62 15.18 9.24 13.14 13.86C11.95 16.56 11.03 19.26 11.1 21.96H9.83C9.73 18.87 10.97 15.78 12.4 12.69C14.36 8.46 16.7 4.23 16.6 0H17.88ZM5.7 0L9.7 12.83L10.82 10.47C12.49 7 14.07 3.5 13.98 0H15.27C15.37 3.88 13.4 7.75 11.57 11.62C9.93 15.07 8.39 18.52 8.49 21.96H7.21L0 0H5.7ZM20.46 0C20.59 5.4 16.73 10.8 14.78 16.2C14.0555 18.0341 13.6824 19.988 13.68 21.96H12.41C12.34 19.63 13.02 17.3 13.98 14.96C16.03 9.98 19.3 5 19.19 0H20.46ZM31.13 13.42C31.13 9.95 30.31 7.97 28 7.97C25.75 7.97 24.83 9.97 24.83 13.47C24.83 17.22 26 18.87 28.02 18.87C30.09 18.87 31.13 17.04 31.13 13.42ZM20.45 13.42C20.45 8.24 23.46 4.87 27.95 4.87C32.53 4.87 35.51 8.07 35.51 13.4C35.51 18.46 32.41 21.98 28.04 21.98C23.46 21.98 20.45 18.56 20.45 13.42ZM42.51 12.3H45.38C47.02 12.3 47.89 11.57 47.89 10.3C47.89 9.14 47.07 8.4 45.58 8.4H42.5V12.3H42.51ZM38.43 21.9V5.38H46.4C50.03 5.38 52.15 7.29 52.15 10.17C52.15 12.33 51.18 13.69 49.16 14.43L52.27 21.92H47.92L45.25 15.18H42.51V21.92H38.43V21.9ZM59.6 15.31H63.05L61.23 9.81L59.59 15.31H59.6ZM54.21 21.91L59.64 5.37H63.92L69.57 21.91H65.24L63.97 18.14H58.8L57.68 21.91H54.22H54.21ZM70.37 13.75C70.37 8.1 73.23 4.93 77.66 4.93C81.47 4.93 83.61 7.08 84.26 10.7L80.35 11.32C80.05 9.26 79.43 8.05 77.68 8.05C75.84 8.05 74.78 9.75 74.78 13.55C74.78 17.07 75.72 18.91 77.78 18.91C79.53 18.91 80.38 17.81 80.7 15.61L84.43 16.23C83.63 20.05 81.32 21.98 77.56 21.98C73.28 21.98 70.36 18.76 70.36 13.75H70.37ZM87.71 21.91H91.82V5.37H87.71V21.91ZM105.42 13.42C105.42 9.95 104.6 7.97 102.28 7.97C100.04 7.97 99.12 9.97 99.12 13.47C99.12 17.22 100.29 18.87 102.3 18.87C104.37 18.87 105.42 17.04 105.42 13.42ZM94.74 13.42C94.74 8.24 97.74 4.87 102.23 4.87C106.81 4.87 109.8 8.07 109.8 13.4C109.8 18.46 106.69 21.98 102.33 21.98C97.75 21.98 94.73 18.56 94.73 13.42H94.74ZM112.76 15.97V5.06H116.89V15.54C116.89 17.5 117.66 18.62 119.6 18.62C121.57 18.62 122.37 17.45 122.37 15.54V5.06H125.63V15.96C125.63 19.71 123.39 21.86 119.18 21.86C115.18 21.86 112.76 19.78 112.76 15.96V15.97ZM128.5 17.59L131.74 16.35C132.41 17.96 133.48 18.93 135.74 18.93C137.39 18.93 138.44 18.26 138.44 17.17C138.44 15.65 136.62 15.31 134.6 14.81C132.04 14.19 129.1 13.32 129.1 9.68C129.1 6.88 131.52 4.9 135.52 4.9C139.03 4.9 141.08 6.43 142.02 8.96L138.56 10C138.09 8.64 136.99 8.02 135.47 8.02C134.1 8.02 133.18 8.59 133.18 9.56C133.18 11.02 134.8 11.29 137.09 11.84C139.86 12.48 142.45 13.5 142.45 16.94C142.45 19.87 140.28 21.98 135.82 21.98C131.42 21.98 129.47 20.09 128.5 17.58V17.59ZM145.38 21.87V5.19H149.52V18.71H156.48V21.87H145.38ZM161.31 21.87V14.86L155.58 5.19H160.1L163.09 10.36L163.67 11.51L164.3 10.36L167.19 5.19H170.83L165.35 14.86V21.87H161.31Z" fill="black"/></svg>
